X: 8831
T: Cuil Aodha, The
R: polka
M: 2/4
K: Gmajor
D>E|:GB DE|G/>A/G/F/ Ge|dB AG/A/|BA AB/A/|
GB DE|G/>A/G/F/ Ge|dB AB/A/|1 G2 D2:|2 G2 GA||
|:Bd de|g>f ge|dB B/A/G/A/|BA AG|
Bd de|g>f ge|dB AB/A/|1 G2 GA:|2 G2 D2||

